X: 18711
T: Iain And Shirley's Wedding
R: jig
M: 6/8
K: Dmajor
EFB AFE|DB,A, B,DG|EFB ABd|fed e2f|
aff fed|efd BAA|B2d BAF|1 EFD D2E:|2 EFD D2g||
faa fed|efd BAA|B2d AAA|Bdf e2g|
[1faa fed|efd BAA|B2d BAF|EFD D2g:|
[2afa geg|(3fga f ecA|B2d BAF|EFD D2E||

